static/nodeIcons/cmd/jobs.svg

<svg xmlns="http://www.w3.org/2000/svg" viewBox="0 0 58 58"><path d="M55 .5H3c-1.65 0-3 1.35-3 3s1.35 3 3 3v-3h52v3c1.65 0 3-1.35 3-3s-1.35-3-3-3z" fill="#3d465b"/><path fill="#f0ede0" d="M5 51.5l6 6 6-6 6 6 6-6 6 6 6-6 6 6 6-6 2 2v-50H3v50z"/><path d="M43 41.5H28a1 1 0 1 1 0-2h15a1 1 0 1 1 0 2zM48 41.5c-.26 0-.52-.11-.71-.29-.18-.19-.29-.45-.29-.71 0-.271.11-.521.29-.71.38-.37 1.04-.37 1.42 0 .18.189.29.439.29.71 0 .26-.11.52-.29.71-.19.18-.45.29-.71.29zM48 27.5H33a1 1 0 1 1 0-2h15a1 1 0 1 1 0 2zM48 34.5H38a1 1 0 1 1 0-2h10a1 1 0 1 1 0 2zM30 34.5h-2a1 1 0 1 1 0-2h2a1 1 0 1 1 0 2zM43 20.5H28a1 1 0 1 1 0-2h15a1 1 0 1 1 0 2zM48 20.5c-.26 0-.52-.11-.71-.29-.18-.19-.29-.45-.29-.71 0-.271.11-.521.29-.71.37-.37 1.05-.37 1.42 0 .18.189.29.45.29.71s-.11.52-.29.71c-.19.18-.44.29-.71.29zM29 27.5c-.26 0-.52-.11-.71-.29-.18-.19-.29-.44-.29-.71 0-.271.11-.521.29-.71.38-.37 1.05-.37 1.42 0 .18.189.29.439.29.71 0 .27-.11.52-.29.71-.19.18-.45.29-.71.29zM34 34.5c-.26 0-.52-.11-.71-.29-.18-.19-.29-.45-.29-.71s.11-.521.29-.71c.38-.37 1.05-.37 1.42 0a1.013 1.013 0 0 1 0 1.42c-.19.18-.45.29-.71.29z" fill="#d4c3a5"/><path d="M18 25.5a1 1 0 1 0 2 0 5.01 5.01 0 0 0-4-4.899V19.5a1 1 0 1 0-2 0v1.104a4.985 4.985 0 0 0-2.818 1.668 3.438 3.438 0 0 0-.794 2.603 3.65 3.65 0 0 0 1.383 2.491L14 29.1v5.438a2.996 2.996 0 0 1-2-2.816 1 1 0 1 0-2 0 5.01 5.01 0 0 0 4 4.899v.879a1 1 0 1 0 2 0v-.882a4.991 4.991 0 0 0 2.819-1.668 3.444 3.444 0 0 0 .793-2.605 3.646 3.646 0 0 0-1.383-2.488L16 28.123v-5.438c1.161.413 2 1.513 2 2.815zm-.999 5.935c.349.271.576.68.622 1.118.043.41-.075.803-.331 1.105a2.988 2.988 0 0 1-1.292.875v-3.878l1.001.78zm-4.002-5.647a1.642 1.642 0 0 1-.622-1.12 1.46 1.46 0 0 1 .331-1.104A2.988 2.988 0 0 1 14 22.689v3.877l-1.001-.778z" fill="#24ae5f"/><g fill="#a5a5a4"><path d="M6 11.5c-.26 0-.52-.11-.71-.29-.18-.19-.29-.45-.29-.71s.11-.521.29-.71c.38-.37 1.05-.37 1.42 0 .18.189.29.45.29.71s-.11.52-.29.71c-.19.18-.45.29-.71.29zM47.17 10.5c0-.55.44-1 1-1 .55 0 1 .45 1 1s-.45 1-1 1c-.56 0-1-.45-1-1zm-3.84 0c0-.55.45-1 1-1 .56 0 1 .45 1 1s-.44 1-1 1c-.55 0-1-.45-1-1zm-3.83 0c0-.55.45-1 1-1s1 .45 1 1-.45 1-1 1-1-.45-1-1zm-3.83 0c0-.55.44-1 1-1 .55 0 1 .45 1 1s-.45 1-1 1c-.56 0-1-.45-1-1zm-3.84 0c0-.55.45-1 1-1 .56 0 1 .45 1 1s-.44 1-1 1c-.55 0-1-.45-1-1zm-3.83 0c0-.55.45-1 1-1s1 .45 1 1-.45 1-1 1-1-.45-1-1zm-3.83 0c0-.55.44-1 1-1 .55 0 1 .45 1 1s-.45 1-1 1c-.56 0-1-.45-1-1zm-3.84 0c0-.55.45-1 1-1 .56 0 1 .45 1 1s-.44 1-1 1c-.55 0-1-.45-1-1zm-3.83 0c0-.55.45-1 1-1s1 .45 1 1-.45 1-1 1-1-.45-1-1zm-3.83 0c0-.55.44-1 1-1 .55 0 1 .45 1 1s-.45 1-1 1c-.56 0-1-.45-1-1zm-3.84 0c0-.55.45-1 1-1 .56 0 1 .45 1 1s-.44 1-1 1c-.55 0-1-.45-1-1zM52 11.5a1.009 1.009 0 0 1-1-1c0-.26.11-.521.29-.71.36-.37 1.04-.37 1.42 0 .18.189.29.45.29.71s-.11.52-.29.71c-.19.18-.45.29-.71.29z"/></g></svg>

<?xml version="1.0" encoding="iso-8859-1"?>
<!-- Generator: Adobe Illustrator 18.0.0, SVG Export Plug-In . SVG Version: 6.00 Build 0)  -->
<!DOCTYPE svg PUBLIC "-//W3C//DTD SVG 1.1//EN" "http://www.w3.org/Graphics/SVG/1.1/DTD/svg11.dtd">
<svg version="1.1" id="Capa_1" xmlns="http://www.w3.org/2000/svg" xmlns:xlink="http://www.w3.org/1999/xlink" x="0px" y="0px"
	 viewBox="0 0 58 58" style="enable-background:new 0 0 58 58;" xml:space="preserve">
<g>
	<path style="fill:#3D465B;" d="M55,0.5H3c-1.65,0-3,1.35-3,3c0,1.65,1.35,3,3,3v-3h52v3c1.65,0,3-1.35,3-3
		C58,1.85,56.65,0.5,55,0.5z"/>
	<polygon style="fill:#F0EDE0;" points="5,51.5 11,57.5 17,51.5 23,57.5 29,51.5 35,57.5 41,51.5 47,57.5 53,51.5 55,53.5 55,3.5 
		3,3.5 3,53.5 	"/>
	<path style="fill:#D4C3A5;" d="M43,41.5H28c-0.552,0-1-0.447-1-1s0.448-1,1-1h15c0.552,0,1,0.447,1,1S43.552,41.5,43,41.5z"/>
	<path style="fill:#D4C3A5;" d="M48,41.5c-0.26,0-0.52-0.11-0.71-0.29C47.11,41.02,47,40.76,47,40.5c0-0.271,0.11-0.521,0.29-0.71
		c0.38-0.37,1.04-0.37,1.42,0C48.89,39.979,49,40.229,49,40.5c0,0.26-0.11,0.52-0.29,0.71C48.52,41.39,48.26,41.5,48,41.5z"/>
	<path style="fill:#D4C3A5;" d="M48,27.5H33c-0.552,0-1-0.447-1-1s0.448-1,1-1h15c0.552,0,1,0.447,1,1S48.552,27.5,48,27.5z"/>
	<path style="fill:#D4C3A5;" d="M48,34.5H38c-0.552,0-1-0.447-1-1s0.448-1,1-1h10c0.552,0,1,0.447,1,1S48.552,34.5,48,34.5z"/>
	<path style="fill:#D4C3A5;" d="M30,34.5h-2c-0.552,0-1-0.447-1-1s0.448-1,1-1h2c0.552,0,1,0.447,1,1S30.552,34.5,30,34.5z"/>
	<path style="fill:#D4C3A5;" d="M43,20.5H28c-0.552,0-1-0.447-1-1s0.448-1,1-1h15c0.552,0,1,0.447,1,1S43.552,20.5,43,20.5z"/>
	<path style="fill:#D4C3A5;" d="M48,20.5c-0.26,0-0.52-0.11-0.71-0.29C47.11,20.02,47,19.76,47,19.5c0-0.271,0.11-0.521,0.29-0.71
		c0.37-0.37,1.05-0.37,1.42,0C48.89,18.979,49,19.24,49,19.5s-0.11,0.52-0.29,0.71C48.52,20.39,48.27,20.5,48,20.5z"/>
	<path style="fill:#D4C3A5;" d="M29,27.5c-0.26,0-0.52-0.11-0.71-0.29C28.11,27.02,28,26.77,28,26.5c0-0.271,0.11-0.521,0.29-0.71
		c0.38-0.37,1.05-0.37,1.42,0C29.89,25.979,30,26.229,30,26.5c0,0.27-0.11,0.52-0.29,0.71C29.52,27.39,29.26,27.5,29,27.5z"/>
	<path style="fill:#D4C3A5;" d="M34,34.5c-0.26,0-0.52-0.11-0.71-0.29C33.11,34.02,33,33.76,33,33.5s0.11-0.521,0.29-0.71
		c0.38-0.37,1.05-0.37,1.42,0C34.89,32.97,35,33.229,35,33.5c0,0.27-0.11,0.52-0.29,0.71C34.52,34.39,34.26,34.5,34,34.5z"/>
	<path style="fill:#24AE5F;" d="M18,25.5c0,0.553,0.448,1,1,1s1-0.447,1-1c0-2.414-1.721-4.434-4-4.899V19.5c0-0.553-0.448-1-1-1
		s-1,0.447-1,1v1.104c-1.091,0.222-2.085,0.801-2.818,1.668c-0.611,0.722-0.894,1.646-0.794,2.603
		c0.102,0.979,0.606,1.887,1.383,2.491L14,29.1v5.438c-1.161-0.414-2-1.514-2-2.816c0-0.553-0.448-1-1-1s-1,0.447-1,1
		c0,2.414,1.721,4.434,4,4.899V37.5c0,0.553,0.448,1,1,1s1-0.447,1-1v-0.882c1.091-0.222,2.085-0.801,2.819-1.668
		c0.611-0.724,0.893-1.648,0.793-2.605c-0.103-0.978-0.606-1.885-1.383-2.488L16,28.123v-5.438C17.161,23.098,18,24.198,18,25.5z
		 M17.001,31.435c0.349,0.271,0.576,0.68,0.622,1.118c0.043,0.41-0.075,0.803-0.331,1.105c-0.348,0.411-0.798,0.699-1.292,0.875
		v-3.878L17.001,31.435z M12.999,25.788c-0.35-0.272-0.576-0.681-0.622-1.12c-0.042-0.409,0.075-0.801,0.331-1.104
		c0.348-0.411,0.798-0.699,1.292-0.875v3.877L12.999,25.788z"/>
	<g>
		<path style="fill:#A5A5A4;" d="M6,11.5c-0.26,0-0.52-0.11-0.71-0.29C5.11,11.02,5,10.76,5,10.5s0.11-0.521,0.29-0.71
			c0.38-0.37,1.05-0.37,1.42,0C6.89,9.979,7,10.24,7,10.5s-0.11,0.52-0.29,0.71C6.52,11.39,6.26,11.5,6,11.5z"/>
		<path style="fill:#A5A5A4;" d="M47.17,10.5c0-0.55,0.44-1,1-1l0,0c0.55,0,1,0.45,1,1l0,0c0,0.55-0.45,1-1,1l0,0
			C47.61,11.5,47.17,11.05,47.17,10.5z M43.33,10.5c0-0.55,0.45-1,1-1l0,0c0.56,0,1,0.45,1,1l0,0c0,0.55-0.44,1-1,1l0,0
			C43.78,11.5,43.33,11.05,43.33,10.5z M39.5,10.5c0-0.55,0.45-1,1-1l0,0c0.55,0,1,0.45,1,1l0,0c0,0.55-0.45,1-1,1l0,0
			C39.95,11.5,39.5,11.05,39.5,10.5z M35.67,10.5c0-0.55,0.44-1,1-1l0,0c0.55,0,1,0.45,1,1l0,0c0,0.55-0.45,1-1,1l0,0
			C36.11,11.5,35.67,11.05,35.67,10.5z M31.83,10.5c0-0.55,0.45-1,1-1l0,0c0.56,0,1,0.45,1,1l0,0c0,0.55-0.44,1-1,1l0,0
			C32.28,11.5,31.83,11.05,31.83,10.5z M28,10.5c0-0.55,0.45-1,1-1l0,0c0.55,0,1,0.45,1,1l0,0c0,0.55-0.45,1-1,1l0,0
			C28.45,11.5,28,11.05,28,10.5z M24.17,10.5c0-0.55,0.44-1,1-1l0,0c0.55,0,1,0.45,1,1l0,0c0,0.55-0.45,1-1,1l0,0
			C24.61,11.5,24.17,11.05,24.17,10.5z M20.33,10.5c0-0.55,0.45-1,1-1l0,0c0.56,0,1,0.45,1,1l0,0c0,0.55-0.44,1-1,1l0,0
			C20.78,11.5,20.33,11.05,20.33,10.5z M16.5,10.5c0-0.55,0.45-1,1-1l0,0c0.55,0,1,0.45,1,1l0,0c0,0.55-0.45,1-1,1l0,0
			C16.95,11.5,16.5,11.05,16.5,10.5z M12.67,10.5c0-0.55,0.44-1,1-1l0,0c0.55,0,1,0.45,1,1l0,0c0,0.55-0.45,1-1,1l0,0
			C13.11,11.5,12.67,11.05,12.67,10.5z M8.83,10.5c0-0.55,0.45-1,1-1l0,0c0.56,0,1,0.45,1,1l0,0c0,0.55-0.44,1-1,1l0,0
			C9.28,11.5,8.83,11.05,8.83,10.5z"/>
		<path style="fill:#A5A5A4;" d="M52,11.5c-0.27,0-0.52-0.11-0.71-0.3C51.11,11.02,51,10.76,51,10.5s0.11-0.521,0.29-0.71
			c0.36-0.37,1.04-0.37,1.42,0C52.89,9.979,53,10.24,53,10.5s-0.11,0.52-0.29,0.71C52.52,11.39,52.26,11.5,52,11.5z"/>
	</g>
</g>
<g>
</g>
<g>
</g>
<g>
</g>
<g>
</g>
<g>
</g>
<g>
</g>
<g>
</g>
<g>
</g>
<g>
</g>
<g>
</g>
<g>
</g>
<g>
</g>
<g>
</g>
<g>
</g>
<g>
</g>
</svg>
